X:370
T: WER SO EIN FAULES GRETCHEN HAT
N: E1556
O: Europa, Mitteleuropa, Deutschland, Hessen, Wetterau, Langsdorf
R: Staende -, Bauern - Lied
M: 2/4
L: 1/16
K: G
D4 | G2G2G2G2 | G2B2G4 | G2B2G2
B2 | A3GF2G2 | A4
d4 | A3GF3G | A4
d4 | B3dd2d2 | e2d2d4 | e2d2d2
g2 | B3Bd2d2 | B4
c4 | A3AA2B2 | G4
d4 | B3dd2d2 | e2d2d4 | e2d2d2
g2 | B3Bd2d2 | B4
c4 | A3AA2B2 | G4

